images/50242610.svg

<?xml version="1.0" encoding="UTF-8"?>
<svg xmlns="http://www.w3.org/2000/svg" xmlns:xlink="http://www.w3.org/1999/xlink" width="300pt" height="300pt" viewBox="0 0 300 300" version="1.1">
<defs>
<g>
<symbol overflow="visible" id="glyph0-0">
<path style="stroke:none;" d="M 0.640625 2.296875 L 0.640625 -9.171875 L 7.140625 -9.171875 L 7.140625 2.296875 Z M 1.375 1.578125 L 6.421875 1.578125 L 6.421875 -8.4375 L 1.375 -8.4375 Z M 1.375 1.578125 "/>
</symbol>
<symbol overflow="visible" id="glyph0-1">
<path style="stroke:none;" d="M 1.28125 -9.484375 L 3 -9.484375 L 7.203125 -1.546875 L 7.203125 -9.484375 L 8.453125 -9.484375 L 8.453125 0 L 6.71875 0 L 2.515625 -7.921875 L 2.515625 0 L 1.28125 0 Z M 1.28125 -9.484375 "/>
</symbol>
<symbol overflow="visible" id="glyph0-2">
<path style="stroke:none;" d="M 1.28125 -9.484375 L 2.5625 -9.484375 L 2.5625 -5.59375 L 7.21875 -5.59375 L 7.21875 -9.484375 L 8.5 -9.484375 L 8.5 0 L 7.21875 0 L 7.21875 -4.515625 L 2.5625 -4.515625 L 2.5625 0 L 1.28125 0 Z M 1.28125 -9.484375 "/>
</symbol>
</g>
</defs>
<g id="surface23133">
<rect x="0" y="0" width="300" height="300" style="fill:rgb(100%,100%,100%);fill-opacity:1;stroke:none;"/>
<path style="fill:none;stroke-width:1.2;stroke-linecap:butt;stroke-linejoin:miter;stroke:rgb(0%,0%,100%);stroke-opacity:1;stroke-miterlimit:10;" d="M 135.996094 79.402344 L 106.722656 96.074219 "/>
<path style="fill:none;stroke-width:1.2;stroke-linecap:butt;stroke-linejoin:miter;stroke:rgb(0%,0%,0%);stroke-opacity:1;stroke-miterlimit:10;" d="M 160.898438 102.089844 L 148.445312 90.746094 "/>
<path style="fill:none;stroke-width:1.2;stroke-linecap:butt;stroke-linejoin:miter;stroke:rgb(0%,0%,100%);stroke-opacity:1;stroke-miterlimit:10;" d="M 148.445312 90.746094 L 135.996094 79.402344 "/>
<path style=" stroke:none;fill-rule:nonzero;fill:rgb(100%,100%,100%);fill-opacity:1;" d="M 125.996094 71.402344 L 145.996094 71.402344 L 145.996094 87.402344 L 125.996094 87.402344 Z M 125.996094 71.402344 "/>
<g style="fill:rgb(0%,0%,100%);fill-opacity:1;">
  <use xlink:href="#glyph0-1" x="125.996094" y="83.77832"/>
  <use xlink:href="#glyph0-2" x="135.96582" y="83.77832"/>
</g>
<path style="fill:none;stroke-width:1.2;stroke-linecap:butt;stroke-linejoin:miter;stroke:rgb(0%,0%,100%);stroke-opacity:1;stroke-miterlimit:10;" d="M 106.722656 96.074219 L 110.128906 112.570312 "/>
<path style="fill:none;stroke-width:1.2;stroke-linecap:butt;stroke-linejoin:miter;stroke:rgb(0%,0%,0%);stroke-opacity:1;stroke-miterlimit:10;" d="M 110.128906 112.570312 L 113.535156 129.066406 "/>
<path style="fill:none;stroke-width:1.2;stroke-linecap:butt;stroke-linejoin:miter;stroke:rgb(0%,0%,100%);stroke-opacity:1;stroke-miterlimit:10;" d="M 115.167969 97.769531 L 117.890625 110.964844 "/>
<path style="fill:none;stroke-width:1.2;stroke-linecap:butt;stroke-linejoin:miter;stroke:rgb(0%,0%,0%);stroke-opacity:1;stroke-miterlimit:10;" d="M 117.890625 110.964844 L 120.617188 124.164062 "/>
<path style=" stroke:none;fill-rule:nonzero;fill:rgb(100%,100%,100%);fill-opacity:1;" d="M 101.722656 88.074219 L 111.722656 88.074219 L 111.722656 104.074219 L 101.722656 104.074219 Z M 101.722656 88.074219 "/>
<g style="fill:rgb(0%,0%,100%);fill-opacity:1;">
  <use xlink:href="#glyph0-1" x="101.722656" y="100.450195"/>
</g>
<path style="fill:none;stroke-width:1.2;stroke-linecap:butt;stroke-linejoin:miter;stroke:rgb(0%,0%,0%);stroke-opacity:1;stroke-miterlimit:10;" d="M 113.535156 129.066406 L 147.015625 132.78125 "/>
<path style="fill:none;stroke-width:1.2;stroke-linecap:butt;stroke-linejoin:miter;stroke:rgb(0%,0%,0%);stroke-opacity:1;stroke-miterlimit:10;" d="M 113.535156 129.066406 L 90.847656 153.96875 "/>
<path style="fill:none;stroke-width:1.2;stroke-linecap:butt;stroke-linejoin:miter;stroke:rgb(0%,0%,0%);stroke-opacity:1;stroke-miterlimit:10;" d="M 147.015625 132.78125 L 160.898438 102.089844 "/>
<path style="fill:none;stroke-width:1.2;stroke-linecap:butt;stroke-linejoin:miter;stroke:rgb(0%,0%,0%);stroke-opacity:1;stroke-miterlimit:10;" d="M 141.183594 126.445312 L 152.289062 101.890625 "/>
<path style="fill:none;stroke-width:1.2;stroke-linecap:butt;stroke-linejoin:miter;stroke:rgb(0%,0%,0%);stroke-opacity:1;stroke-miterlimit:10;" d="M 147.015625 132.78125 L 163.6875 162.054688 "/>
<path style="fill:none;stroke-width:1.2;stroke-linecap:butt;stroke-linejoin:miter;stroke:rgb(0%,0%,0%);stroke-opacity:1;stroke-miterlimit:10;" d="M 163.6875 162.054688 L 197.375 162.25 "/>
<path style="fill:none;stroke-width:1.2;stroke-linecap:butt;stroke-linejoin:miter;stroke:rgb(0%,0%,0%);stroke-opacity:1;stroke-miterlimit:10;" d="M 167.011719 170 L 193.960938 170.160156 "/>
<path style="fill:none;stroke-width:1.2;stroke-linecap:butt;stroke-linejoin:miter;stroke:rgb(0%,0%,0%);stroke-opacity:1;stroke-miterlimit:10;" d="M 146.675781 191.128906 L 163.6875 162.054688 "/>
<path style="fill:none;stroke-width:1.2;stroke-linecap:butt;stroke-linejoin:miter;stroke:rgb(0%,0%,0%);stroke-opacity:1;stroke-miterlimit:10;" d="M 197.375 162.25 L 214.050781 191.523438 "/>
<path style="fill:none;stroke-width:1.2;stroke-linecap:butt;stroke-linejoin:miter;stroke:rgb(0%,0%,0%);stroke-opacity:1;stroke-miterlimit:10;" d="M 214.390625 133.175781 L 197.375 162.25 "/>
<path style="fill:none;stroke-width:1.2;stroke-linecap:butt;stroke-linejoin:miter;stroke:rgb(0%,0%,0%);stroke-opacity:1;stroke-miterlimit:10;" d="M 214.050781 191.523438 L 205.542969 206.0625 "/>
<path style="fill:none;stroke-width:1.2;stroke-linecap:butt;stroke-linejoin:miter;stroke:rgb(0%,0%,100%);stroke-opacity:1;stroke-miterlimit:10;" d="M 205.542969 206.0625 L 197.035156 220.597656 "/>
<path style="fill:none;stroke-width:1.2;stroke-linecap:butt;stroke-linejoin:miter;stroke:rgb(0%,0%,0%);stroke-opacity:1;stroke-miterlimit:10;" d="M 205.507812 190.429688 L 198.699219 202.058594 "/>
<path style="fill:none;stroke-width:1.2;stroke-linecap:butt;stroke-linejoin:miter;stroke:rgb(0%,0%,100%);stroke-opacity:1;stroke-miterlimit:10;" d="M 198.699219 202.058594 L 191.894531 213.6875 "/>
<path style="fill:none;stroke-width:1.2;stroke-linecap:butt;stroke-linejoin:miter;stroke:rgb(0%,0%,0%);stroke-opacity:1;stroke-miterlimit:10;" d="M 214.050781 191.523438 L 247.734375 191.722656 "/>
<path style="fill:none;stroke-width:1.2;stroke-linecap:butt;stroke-linejoin:miter;stroke:rgb(0%,0%,100%);stroke-opacity:1;stroke-miterlimit:10;" d="M 197.035156 220.597656 L 180.191406 220.5 "/>
<path style="fill:none;stroke-width:1.2;stroke-linecap:butt;stroke-linejoin:miter;stroke:rgb(0%,0%,0%);stroke-opacity:1;stroke-miterlimit:10;" d="M 180.191406 220.5 L 163.347656 220.402344 "/>
<path style=" stroke:none;fill-rule:nonzero;fill:rgb(100%,100%,100%);fill-opacity:1;" d="M 192.035156 212.597656 L 202.035156 212.597656 L 202.035156 228.597656 L 192.035156 228.597656 Z M 192.035156 212.597656 "/>
<g style="fill:rgb(0%,0%,100%);fill-opacity:1;">
  <use xlink:href="#glyph0-1" x="192.035156" y="224.973633"/>
</g>
<path style="fill:none;stroke-width:1.2;stroke-linecap:butt;stroke-linejoin:miter;stroke:rgb(0%,0%,0%);stroke-opacity:1;stroke-miterlimit:10;" d="M 163.347656 220.402344 L 146.675781 191.128906 "/>
<path style="fill:none;stroke-width:1.2;stroke-linecap:butt;stroke-linejoin:miter;stroke:rgb(0%,0%,0%);stroke-opacity:1;stroke-miterlimit:10;" d="M 168.566406 213.550781 L 155.230469 190.132812 "/>
<path style="fill:none;stroke-width:1.2;stroke-linecap:butt;stroke-linejoin:miter;stroke:rgb(0%,0%,0%);stroke-opacity:1;stroke-miterlimit:10;" d="M 247.734375 191.722656 L 264.75 162.644531 "/>
<path style="fill:none;stroke-width:1.2;stroke-linecap:butt;stroke-linejoin:miter;stroke:rgb(0%,0%,0%);stroke-opacity:1;stroke-miterlimit:10;" d="M 242.597656 184.808594 L 256.207031 161.550781 "/>
<path style="fill:none;stroke-width:1.2;stroke-linecap:butt;stroke-linejoin:miter;stroke:rgb(0%,0%,0%);stroke-opacity:1;stroke-miterlimit:10;" d="M 264.75 162.644531 L 248.078125 133.375 "/>
<path style="fill:none;stroke-width:1.2;stroke-linecap:butt;stroke-linejoin:miter;stroke:rgb(0%,0%,0%);stroke-opacity:1;stroke-miterlimit:10;" d="M 248.078125 133.375 L 214.390625 133.175781 "/>
<path style="fill:none;stroke-width:1.2;stroke-linecap:butt;stroke-linejoin:miter;stroke:rgb(0%,0%,0%);stroke-opacity:1;stroke-miterlimit:10;" d="M 244.664062 141.28125 L 217.710938 141.121094 "/>
<path style="fill:none;stroke-width:1.2;stroke-linecap:butt;stroke-linejoin:miter;stroke:rgb(0%,0%,0%);stroke-opacity:1;stroke-miterlimit:10;" d="M 90.847656 153.96875 L 57.9375 146.769531 "/>
<path style="fill:none;stroke-width:1.2;stroke-linecap:butt;stroke-linejoin:miter;stroke:rgb(0%,0%,0%);stroke-opacity:1;stroke-miterlimit:10;" d="M 85.863281 160.992188 L 59.535156 155.234375 "/>
<path style="fill:none;stroke-width:1.2;stroke-linecap:butt;stroke-linejoin:miter;stroke:rgb(0%,0%,0%);stroke-opacity:1;stroke-miterlimit:10;" d="M 101.070312 186.066406 L 90.847656 153.96875 "/>
<path style="fill:none;stroke-width:1.2;stroke-linecap:butt;stroke-linejoin:miter;stroke:rgb(0%,0%,0%);stroke-opacity:1;stroke-miterlimit:10;" d="M 57.9375 146.769531 L 35.25 171.671875 "/>
<path style="fill:none;stroke-width:1.2;stroke-linecap:butt;stroke-linejoin:miter;stroke:rgb(0%,0%,0%);stroke-opacity:1;stroke-miterlimit:10;" d="M 35.25 171.671875 L 45.472656 203.773438 "/>
<path style="fill:none;stroke-width:1.2;stroke-linecap:butt;stroke-linejoin:miter;stroke:rgb(0%,0%,0%);stroke-opacity:1;stroke-miterlimit:10;" d="M 43.824219 172.476562 L 52.003906 198.15625 "/>
<path style="fill:none;stroke-width:1.2;stroke-linecap:butt;stroke-linejoin:miter;stroke:rgb(0%,0%,0%);stroke-opacity:1;stroke-miterlimit:10;" d="M 45.472656 203.773438 L 78.382812 210.96875 "/>
<path style="fill:none;stroke-width:1.2;stroke-linecap:butt;stroke-linejoin:miter;stroke:rgb(0%,0%,0%);stroke-opacity:1;stroke-miterlimit:10;" d="M 78.382812 210.96875 L 101.070312 186.066406 "/>
<path style="fill:none;stroke-width:1.2;stroke-linecap:butt;stroke-linejoin:miter;stroke:rgb(0%,0%,0%);stroke-opacity:1;stroke-miterlimit:10;" d="M 74.792969 203.140625 L 92.941406 183.21875 "/>
</g>
</svg>

<svg xmlns="http://www.w3.org/2000/svg" xmlns:xlink="http://www.w3.org/1999/xlink" width="300pt" height="300pt" viewBox="0 0 300 300"><defs><symbol overflow="visible"><path d="M.64 2.297v-11.47h6.5v11.47zm.735-.72h5.047V-8.436H1.375zm0 0"/></symbol><symbol overflow="visible" id="a"><path d="M1.28-9.484H3l4.203 7.937v-7.937h1.25V0H6.72L2.515-7.922V0H1.28zm0 0"/></symbol><symbol overflow="visible" id="b"><path d="M1.28-9.484h1.282v3.89H7.22v-3.89H8.5V0H7.22v-4.516H2.562V0H1.28zm0 0"/></symbol></defs><g><path fill="#fff" d="M0 0h300v300H0z"/><path d="M135.996 79.402l-29.273 16.672" stroke-width="1.2" stroke="#00f" stroke-miterlimit="10" fill="none"/><path d="M160.898 102.09l-12.453-11.344" stroke-width="1.2" stroke="#000" stroke-miterlimit="10" fill="none"/><path d="M148.445 90.746l-12.45-11.344" stroke-width="1.2" stroke="#00f" stroke-miterlimit="10" fill="none"/><path d="M125.996 71.402h20v16h-20zm0 0" fill="#fff"/><g fill="#00f"><use xlink:href="#a" x="125.996" y="83.778"/><use xlink:href="#b" x="135.966" y="83.778"/></g><path d="M106.723 96.074l3.406 16.496" stroke-width="1.2" stroke="#00f" stroke-miterlimit="10" fill="none"/><path d="M110.13 112.57l3.405 16.496" stroke-width="1.2" stroke="#000" stroke-miterlimit="10" fill="none"/><path d="M115.168 97.77l2.723 13.195" stroke-width="1.2" stroke="#00f" stroke-miterlimit="10" fill="none"/><path d="M117.89 110.965l2.727 13.2" stroke-width="1.2" stroke="#000" stroke-miterlimit="10" fill="none"/><path d="M101.723 88.074h10v16h-10zm0 0" fill="#fff"/><use xlink:href="#a" x="101.723" y="100.45" fill="#00f"/><path d="M113.535 129.066l33.48 3.715M113.535 129.066L90.848 153.97M147.016 132.78l13.882-30.69M141.184 126.445l11.105-24.554M147.016 132.78l16.672 29.275M163.688 162.055l33.687.195M167.012 170l26.95.16M146.676 191.13l17.012-29.075M197.375 162.25l16.676 29.273M214.39 133.176l-17.015 29.074M214.05 191.523l-8.507 14.54" stroke-width="1.2" stroke="#000" stroke-miterlimit="10" fill="none"/><path d="M205.543 206.063l-8.508 14.535" stroke-width="1.2" stroke="#00f" stroke-miterlimit="10" fill="none"/><path d="M205.508 190.43l-6.81 11.63" stroke-width="1.2" stroke="#000" stroke-miterlimit="10" fill="none"/><path d="M198.7 202.06l-6.805 11.627" stroke-width="1.2" stroke="#00f" stroke-miterlimit="10" fill="none"/><path d="M214.05 191.523l33.684.2" stroke-width="1.2" stroke="#000" stroke-miterlimit="10" fill="none"/><path d="M197.035 220.598l-16.844-.098" stroke-width="1.2" stroke="#00f" stroke-miterlimit="10" fill="none"/><path d="M180.19 220.5l-16.842-.098" stroke-width="1.2" stroke="#000" stroke-miterlimit="10" fill="none"/><path d="M192.035 212.598h10v16h-10zm0 0" fill="#fff"/><use xlink:href="#a" x="192.035" y="224.974" fill="#00f"/><path d="M163.348 220.402l-16.672-29.273M168.566 213.55l-13.336-23.417M247.734 191.723l17.016-29.078M242.598 184.81l13.61-23.26M264.75 162.645l-16.672-29.27M248.078 133.375l-33.687-.2M244.664 141.28l-26.953-.16M90.848 153.97l-32.91-7.2M85.863 160.992l-26.328-5.758M101.07 186.066L90.848 153.97M57.938 146.77L35.25 171.672M35.25 171.672l10.223 32.1M43.824 172.477l8.18 25.68M45.473 203.773l32.91 7.196M78.383 210.97l22.687-24.904M74.793 203.14l18.148-19.92" stroke-width="1.2" stroke="#000" stroke-miterlimit="10" fill="none"/></g></svg>
